X:979
T:The Bucks of Westmeath
N:"Collected by Delaney"
B:O'Neill's 979
Z:Transcribed by Dan G. Petersen, dangp@post6.tele.dk
M:6/8
L:1/8
K:G
e|d3 BdB|G2A B2^c|d3 BdB|cAB c2e|
d3 BdB|G2A B2d|gfe dcB|A2B c2:|
d|gfg dcB|gfg dcB|gfg dcB|A2B c2f|
gfg abc'|bag gfe|gfe dcB|A2B c2:|
e|dBG G2e|dBG G2e|dBG G2B|A2B c2e|
dBG G2e|dBG G2d|gfe dcB|A2B c2:|


